X:1
T:Title
%%score { ( 1 4 ) | ( 2 3 ) }
L:1/8
M:4/4
K:C
V:1 treble nm="Grand Piano"
V:4 treble 
V:2 bass 
V:3 bass 
V:1
 z4 z2[Q:1/4=100] [EG]2- | [EG]E_E=E _E =E2 [EG]- | [EG] A2 F- F3 E- | %3
 E[B,D][CE][DF] [EG] [GB]2 [DFA]- |[M:3/4] [DFA][CEG]- [CEG]4- |[M:1/4] [CEG][C_E^F] | %6
[M:4/4] [CEG] [CFA]2 [CFA]- [CFA] [^CGA]2 [CGA]- | [CGA] [D^Fd]2 [DAc]- [DAc] B3 | %8
 B B2 B- B c2 c- |[M:2/4] c d3- |[M:11/16] de/-e/-e/-e/-e/-e-<e | %11
[M:4/4] d[Ec][EB][Ec] [EB] [Ec]2 [EA]- | [EA] B2 F- F3 G- | G B3 AGA[EG] | %14
 [DF] [G,CE]3- [G,CE]3 [CEG]- | [CEG]A^GA B c2 A- | A G2 [Gc]- [Gc] [Gd]2 [Ge]- | %17
 [Ge][^FA] [Fd]2- [Fd] [B,=FB]3 |[M:3/4] [DFG] c2- [Fc-] [Fc-][Ec]- | [Ec] z z2 z2 |] %20
V:2
 z8 | z8 | z8[K:treble] | z4[K:bass] z .G,3 |[M:3/4] z6 |[M:1/4] z2 | %6
[M:4/4] C, F,2 F,- F, E,2 E,- | E, D,2 F,- F,[K:treble] [G,DG]3 | %8
 [G,DG] [G,DG]2 [G,DG]- [G,DG] [A,D^F]2 [A,DF]- |[M:2/4] [A,DF] [G,B,=F]3- | %10
[M:11/16] [G,B,F]G/-G/-G/-G/-G/-G-<G |[M:4/4] F[K:bass][C,G,][C,G,][C,G,] [C,G,] [C,G,]2 [C,C]- | %12
 [C,C][K:treble] [G,B,F]2 [G,B,D]- [G,B,D]3 [G,DF]- | [G,DF] [G,DF]3 [G,CF]EF[K:bass]G,, | %14
 B,, C,3- C,3 C,- | C,[F,CF][F,B,F][F,CF] [F,B,F] [^F,A,_E]2 [F,CE]- | %16
 [F,CE] [G,C=E]2 [E,C]- [E,C] [D,B,]2 [C,C]- | [C,C][D,C] [D,C]2- [D,C] G,3 | %18
[M:3/4] .G,2 z A, A,G,- | G, z z2 z2 |] %20
V:3
 z4 z2 [C,C]2- | [C,C][C,G,C][C,^F,C][C,G,C] [C,F,C] [C,G,C]2 [C,C]- | %2
 [C,C][K:treble] [G,B,F]2 [G,B,D]- [G,B,D]3 [G,C]- | %3
 [G,C][K:bass] [G,,G,]2 [G,,G,]- [G,,G,]G,,A,,B,,- |[M:3/4] B,,C,- C,4- |[M:1/4] C,C, |[M:4/4] x8 | %7
 x5[K:treble] x3 | x8 |[M:2/4] x4 |[M:11/16] z [G,B,]/-[G,B,]/-[G,B,]/-[G,B,]/-[G,B,]-<[G,B,] z/ | %11
[M:4/4] x[K:bass] x7 | x[K:treble] x7 | z4 z .[G,B,]3[K:bass] | x8 | x8 | x8 | x8 | %18
[M:3/4] z C,- C,4- | C, z z2 z2 |] %20
V:4
 x8 | x8 | x8 | x8 |[M:3/4] x6 |[M:1/4] x2 |[M:4/4] x8 | x8 | x8 |[M:2/4] x4 |[M:11/16] x11/2 | %11
[M:4/4] x8 | x8 | z4 z2 z G,- | G, z z2 z4 | x8 | x8 | x8 |[M:3/4] z .[CE]3 z2 | x6 |] %20

